;FLAVOR:Marlin
;TIME:6215
;Filament used: 4.29238m
;Layer height: 0.2
;MINX:62.848
;MINY:70.852
;MINZ:0.2
;MAXX:172.141
;MAXY:164.147
;MAXZ:9.6
;Generated with Cura_SteamEngine 5.2.2
M140 S65
M105
M190 S65
M104 S235
M105
M109 S235
M82 ;absolute extrusion mode
; Ender 3 Custom Start G-code
G92 E0 ; Reset Extruder
G28 ; Home all axes
G1 Z2.0 F3000 ; Move Z Axis up little to prevent scratching of Heat Bed
G1 X0.1 Y20 Z0.3 F5000.0 ; Move to start position
G1 X0.1 Y200.0 Z0.3 F1500.0 E15 ; Draw the first line
G1 X0.4 Y200.0 Z0.3 F5000.0 ; Move to side a little
G1 X0.4 Y20 Z0.3 F1500.0 E30 ; Draw the second line
G92 E0 ; Reset Extruder
G1 Z2.0 F3000 ; Move Z Axis up little to prevent scratching of Heat Bed
G1 X5 Y20 Z0.3 F5000.0 ; Move over to prevent blob squish
G92 E0
G92 E0
G1 F1500 E-2
;LAYER_COUNT:48
;LAYER:0
M107
G0 F6000 X66.409 Y74.139 Z0.2
;TYPE:SKIRT
G1 F1500 E0
G1 F1200 X66.995 Y73.621 E0.02601
G1 X67.22 Y73.436 E0.0357
G1 X67.969 Y72.872 E0.06689
G1 X68.764 Y72.374 E0.09809
G1 X69.598 Y71.945 E0.12928
G1 X70.79 Y71.47 E0.17196
G1 X71.813 Y71.174 E0.20738
G1 X72.733 Y70.991 E0.23858
G1 X73.665 Y70.887 E0.26977
G1 X74.273 Y70.862 E0.29001
G1 X75.094 Y70.852 E0.31732
G1 X159.992 Y70.854 E3.14104
G1 X160.788 Y70.866 E3.16751
G1 X161.724 Y70.92 E3.1987
G1 X162.652 Y71.054 E3.22988
G1 X163.566 Y71.266 E3.26109
G1 X164.458 Y71.556 E3.29229
G1 X165.322 Y71.92 E3.32347
G1 X166.364 Y72.482 E3.36285
G1 X166.766 Y72.728 E3.37852
G1 X167.544 Y73.252 E3.40972
G1 X168.275 Y73.839 E3.4409
G1 X168.953 Y74.487 E3.4721
G1 X169.574 Y75.19 E3.50329
G1 X170.132 Y75.943 E3.53447
G1 X170.625 Y76.742 E3.56569
G1 X171.047 Y77.579 E3.59687
G1 X171.397 Y78.449 E3.62806
G1 X171.636 Y79.214 E3.65472
G1 X171.743 Y79.606 E3.66823
G1 X171.951 Y80.521 E3.69944
G1 X172.08 Y81.45 E3.73064
G1 X172.128 Y82.266 E3.75782
G1 X172.141 Y82.967 E3.78114
G1 X172.139 Y152.02 E6.07785
G1 X172.129 Y152.755 E6.1023
G1 X172.076 Y153.691 E6.13348
G1 X171.944 Y154.62 E6.16469
G1 X171.733 Y155.533 E6.19586
G1 X171.445 Y156.426 E6.22707
G1 X170.905 Y157.65 E6.27156
G1 X170.745 Y157.96 E6.28317
G1 X170.28 Y158.774 E6.31435
G1 X169.747 Y159.546 E6.34555
G1 X169.15 Y160.27 E6.37676
G1 X168.494 Y160.94 E6.40795
G1 X167.783 Y161.551 E6.43913
G1 X167.056 Y162.078 E6.46899
G1 X166.788 Y162.256 E6.47969
G1 X165.985 Y162.741 E6.51089
G1 X165.144 Y163.156 E6.54209
G1 X164.271 Y163.498 E6.57327
G1 X162.845 Y163.888 E6.62244
G1 X161.786 Y164.061 E6.65813
G1 X160.818 Y164.134 E6.69042
G1 X160.22 Y164.147 E6.71031
G1 X74.957 Y164.146 E9.54617
G1 X74.159 Y164.135 E9.57272
G1 X73.223 Y164.082 E9.6039
G1 X72.295 Y163.95 E9.63507
G1 X71.381 Y163.739 E9.66627
G1 X70.488 Y163.45 E9.69749
G1 X69.624 Y163.087 E9.72866
G1 X68.793 Y162.652 E9.75986
G1 X68.002 Y162.147 E9.79107
G1 X67.486 Y161.763 E9.81246
G1 X67.146 Y161.494 E9.82688
G1 X66.436 Y160.881 E9.85808
G1 X65.781 Y160.21 E9.88927
G1 X65.185 Y159.485 E9.92049
G1 X64.653 Y158.713 E9.95167
G1 X64.189 Y157.898 E9.98286
G1 X63.752 Y156.939 E10.01791
G1 X63.648 Y156.678 E10.02726
G1 X63.339 Y155.793 E10.05844
G1 X63.105 Y154.884 E10.08965
G1 X62.951 Y153.959 E10.12084
G1 X62.869 Y152.813 E10.15906
G1 X62.848 Y151.595 E10.19957
G1 X62.849 Y82.936 E12.48318
G1 X62.86 Y82.244 E12.5062
G1 X62.915 Y81.308 E12.53739
G1 X63.05 Y80.38 E12.56858
G1 X63.263 Y79.466 E12.59979
G1 X63.665 Y78.287 E12.64122
G1 X63.787 Y77.986 E12.65202
G1 X64.176 Y77.133 E12.6832
G1 X64.636 Y76.316 E12.71439
G1 X65.164 Y75.541 E12.74558
G1 X65.756 Y74.813 E12.77679
G1 X66.409 Y74.139 E12.808
G0 F6000 X66.745 Y74.372
G1 F1200 X67.249 Y73.93 E12.8303
G1 X67.474 Y73.745 E12.83999
G1 X68.21 Y73.192 E12.87061
G1 X68.991 Y72.705 E12.90122
G1 X69.811 Y72.287 E12.93183
G1 X70.922 Y71.848 E12.97156
G1 X71.924 Y71.559 E13.00625
G1 X72.828 Y71.381 E13.03689
G1 X73.743 Y71.283 E13.0675
G1 X74.278 Y71.262 E13.08531
G1 X75.094 Y71.252 E13.11245
G1 X159.986 Y71.254 E15.93597
G1 X160.782 Y71.266 E15.96245
G1 X161.701 Y71.32 E15.99307
G1 X162.612 Y71.453 E16.02369
G1 X163.508 Y71.665 E16.05431
G1 X164.382 Y71.954 E16.08493
G1 X165.228 Y72.318 E16.11556
G1 X166.155 Y72.824 E16.15069
G1 X166.557 Y73.07 E16.16636
G1 X167.321 Y73.584 E16.19699
G1 X168.037 Y74.162 E16.22759
G1 X168.7 Y74.801 E16.25822
G1 X169.305 Y75.494 E16.28882
G1 X169.848 Y76.238 E16.31945
G1 X170.325 Y77.026 E16.35009
G1 X170.731 Y77.852 E16.3807
G1 X171.064 Y78.71 E16.41131
G1 X171.25 Y79.32 E16.43252
G1 X171.357 Y79.712 E16.44604
G1 X171.561 Y80.61 E16.47667
G1 X171.685 Y81.522 E16.50728
G1 X171.729 Y82.275 E16.53237
G1 X171.741 Y82.967 E16.55539
G1 X171.739 Y152.014 E18.8519
G1 X171.729 Y152.749 E18.87635
G1 X171.677 Y153.668 E18.90696
G1 X171.544 Y154.579 E18.93758
G1 X171.334 Y155.476 E18.96822
G1 X171.046 Y156.35 E18.99883
G1 X170.549 Y157.467 E19.03949
G1 X170.389 Y157.777 E19.0511
G1 X169.932 Y158.576 E19.08171
G1 X169.407 Y159.332 E19.11232
G1 X168.818 Y160.04 E19.14296
G1 X168.171 Y160.694 E19.17355
G1 X167.468 Y161.289 E19.20419
G1 X166.835 Y161.745 E19.23013
G1 X166.567 Y161.923 E19.24084
G1 X165.778 Y162.398 E19.27147
G1 X164.952 Y162.804 E19.30208
G1 X164.093 Y163.136 E19.33271
G1 X162.761 Y163.498 E19.37862
G1 X161.722 Y163.666 E19.41362
G1 X160.806 Y163.734 E19.44417
G1 X160.22 Y163.747 E19.46367
G1 X74.963 Y163.746 E22.29933
G1 X74.165 Y163.735 E22.32587
G1 X73.246 Y163.682 E22.35649
G1 X72.335 Y163.55 E22.38711
G1 X71.438 Y163.339 E22.41775
G1 X70.564 Y163.052 E22.44835
G1 X69.718 Y162.689 E22.47897
G1 X68.906 Y162.254 E22.50961
G1 X68.135 Y161.751 E22.54023
G1 X67.734 Y161.449 E22.55692
G1 X67.394 Y161.18 E22.57134
G1 X66.698 Y160.578 E22.60195
G1 X66.056 Y159.918 E22.63257
G1 X65.474 Y159.204 E22.66321
G1 X64.956 Y158.443 E22.69383
G1 X64.506 Y157.64 E22.72445
G1 X64.124 Y156.791 E22.75541
G1 X64.02 Y156.53 E22.76475
G1 X63.717 Y155.66 E22.7954
G1 X63.49 Y154.768 E22.82601
G1 X63.341 Y153.86 E22.85661
G1 X63.269 Y152.805 E22.89178
G1 X63.248 Y151.595 E22.93204
G1 X63.249 Y82.943 E25.21541
G1 X63.26 Y82.251 E25.23843
G1 X63.315 Y81.331 E25.26908
G1 X63.449 Y80.421 E25.29968
G1 X63.662 Y79.525 E25.33031
G1 X64.035 Y78.437 E25.36856
G1 X64.157 Y78.136 E25.37936
G1 X64.54 Y77.299 E25.40998
G1 X64.994 Y76.498 E25.4406
G1 X65.515 Y75.739 E25.47122
G1 X66.101 Y75.029 E25.50184
G1 X66.745 Y74.372 E25.53244
G0 F6000 X67.082 Y74.605
G1 F1200 X67.503 Y74.239 E25.55099
G1 X67.728 Y74.054 E25.56068
G1 X68.45 Y73.512 E25.59071
G1 X69.218 Y73.036 E25.62076
G1 X70.024 Y72.63 E25.65078
G1 X71.053 Y72.227 E25.68753
G1 X72.035 Y71.944 E25.72153
G1 X72.922 Y71.772 E25.75158
G1 X73.82 Y71.679 E25.7816
G1 X74.284 Y71.662 E25.79705
G1 X75.094 Y71.652 E25.82399
G1 X159.98 Y71.654 E28.64731
G1 X160.776 Y71.666 E28.67379
G1 X161.677 Y71.72 E28.70381
G1 X162.571 Y71.853 E28.73387
G1 X163.448 Y72.064 E28.76387
G1 X164.304 Y72.353 E28.79392
G1 X165.131 Y72.716 E28.82396
G1 X165.946 Y73.165 E28.85491
G1 X166.348 Y73.411 E28.87058
G1 X167.097 Y73.916 E28.90063
G1 X167.798 Y74.485 E28.93066
G1 X168.446 Y75.114 E28.9607
G1 X169.036 Y75.798 E28.99074
G1 X169.563 Y76.531 E29.02077
G1 X170.023 Y77.309 E29.05083
G1 X170.412 Y78.123 E29.08083
G1 X170.728 Y78.969 E29.11087
G1 X170.864 Y79.425 E29.1267
G1 X170.971 Y79.817 E29.14021
G1 X171.17 Y80.698 E29.17025
G1 X171.29 Y81.593 E29.20029
G1 X171.329 Y82.283 E29.22327
G1 X171.341 Y82.967 E29.24603
G1 X171.339 Y152.009 E31.54237
G1 X171.329 Y152.744 E31.56682
G1 X171.277 Y153.645 E31.59684
G1 X171.145 Y154.539 E31.6269
G1 X170.935 Y155.417 E31.65692
G1 X170.648 Y156.273 E31.68695
G1 X170.194 Y157.283 E31.72378
G1 X170.034 Y157.593 E31.73538
G1 X169.585 Y158.377 E31.76543
G1 X169.068 Y159.117 E31.79546
G1 X168.487 Y159.809 E31.82551
G1 X167.848 Y160.447 E31.85554
G1 X167.155 Y161.026 E31.88558
G1 X166.613 Y161.412 E31.90771
G1 X166.345 Y161.59 E31.91841
G1 X165.572 Y162.056 E31.94843
G1 X164.76 Y162.451 E31.97846
G1 X163.916 Y162.773 E32.00851
G1 X162.678 Y163.106 E32.05115
G1 X161.658 Y163.271 E32.08552
G1 X160.794 Y163.334 E32.11433
G1 X160.22 Y163.347 E32.13342
G1 X74.968 Y163.346 E34.96892
G1 X74.17 Y163.335 E34.99546
G1 X73.269 Y163.283 E35.02548
G1 X72.375 Y163.151 E35.05554
G1 X71.497 Y162.94 E35.08557
G1 X70.641 Y162.653 E35.1156
G1 X69.814 Y162.291 E35.14562
G1 X69.021 Y161.857 E35.17569
G1 X67.982 Y161.135 E35.21777
G1 X67.642 Y160.866 E35.23219
G1 X66.959 Y160.275 E35.26223
G1 X66.332 Y159.626 E35.29225
G1 X65.764 Y158.924 E35.32228
G1 X65.26 Y158.174 E35.35234
G1 X64.825 Y157.383 E35.38236
G1 X64.496 Y156.643 E35.4093
G1 X64.392 Y156.382 E35.41864
G1 X64.095 Y155.529 E35.44868
G1 X63.874 Y154.653 E35.47873
G1 X63.733 Y153.761 E35.50877
G1 X63.669 Y152.798 E35.54087
G1 X63.648 Y151.595 E35.58089
G1 X63.649 Y82.949 E37.86406
G1 X63.66 Y82.257 E37.88708
G1 X63.715 Y81.355 E37.91714
G1 X63.848 Y80.462 E37.94716
G1 X64.061 Y79.584 E37.97721
G1 X64.406 Y78.588 E38.01227
G1 X64.528 Y78.287 E38.02307
G1 X64.904 Y77.465 E38.05314
G1 X65.351 Y76.681 E38.08316
G1 X65.866 Y75.939 E38.1132
G1 X66.444 Y75.245 E38.14324
G1 X67.082 Y74.605 E38.17329
G1 F1500 E36.17329
;MESH:YAPP_esp8266_relays_base_only.stl
G0 F6000 X73.262 Y82.094
G0 X74.502 Y152.547
;TYPE:WALL-INNER
G1 F1500 E38.17329
G1 F1200 X160.471 Y152.546 E41.03263
G1 X160.54 Y152.46 E41.0363
G1 X160.54 Y82.499 E43.36321
G1 X160.471 Y82.453 E43.36597
G1 X74.504 Y82.453 E46.22524
G1 X74.449 Y82.535 E46.22853
G1 X74.448 Y152.468 E48.55451
G1 X74.502 Y152.547 E48.55769
G0 F6000 X74.134 Y152.761
;TYPE:WALL-OUTER
G1 F1200 X74.314 Y152.91 E48.56546
G1 X74.43 Y152.947 E48.56951
G1 X160.588 Y152.946 E51.43514
G1 X160.811 Y152.804 E51.44393
G1 X160.94 Y152.558 E51.45317
G1 X160.94 Y82.529 E53.78235
G1 X160.877 Y82.278 E53.79095
G1 X160.824 Y82.205 E53.79395
G1 X160.586 Y82.053 E53.80335
G1 X74.434 Y82.053 E56.66877
G1 X74.315 Y82.091 E56.67293
G1 X74.138 Y82.236 E56.68054
G1 X74.049 Y82.457 E56.68846
G1 X74.048 Y152.545 E59.0196
G1 X74.134 Y152.761 E59.02733
G0 F6000 X74.809 Y152.186
;TYPE:SKIN
G1 F1200 X160.18 Y152.187 E61.86678
G1 X160.18 Y82.814 E64.17414
G1 X74.809 Y82.814 E67.01359
G1 X74.809 Y152.186 E69.32091
G0 F6000 X75.617 Y151.984
G1 F1200 X75.009 Y151.376 E69.34951
G0 F6000 X75.009 Y150.811
G1 F1200 X76.182 Y151.984 E69.40468
G0 F6000 X76.748 Y151.984
G1 F1200 X75.009 Y150.245 E69.48648
G0 F6000 X75.009 Y149.679
G1 F1200 X77.314 Y151.984 E69.5949
G0 F6000 X77.88 Y151.984
G1 F1200 X75.009 Y149.113 E69.72994
G0 F6000 X75.009 Y148.548
G1 F1200 X78.445 Y151.984 E69.89156
G0 F6000 X79.011 Y151.984
G1 F1200 X75.009 Y147.982 E70.07981
G0 F6000 X75.009 Y147.416
G1 F1200 X79.577 Y151.984 E70.29467
G0 F6000 X80.142 Y151.984
G1 F1200 X75.009 Y146.851 E70.53611
G0 F6000 X75.009 Y146.285
G1 F1200 X80.708 Y151.984 E70.80417
G0 F6000 X81.274 Y151.984
G1 F1200 X75.009 Y145.719 E71.09886
G0 F6000 X75.009 Y145.154
G1 F1200 X81.839 Y151.984 E71.42012
G0 F6000 X82.405 Y151.984
G1 F1200 X75.009 Y144.588 E71.76801
G0 F6000 X75.009 Y144.022
G1 F1200 X82.971 Y151.984 E72.14252
G0 F6000 X83.536 Y151.984
G1 F1200 X75.009 Y143.457 E72.5436
G0 F6000 X75.009 Y142.891
G1 F1200 X84.102 Y151.984 E72.97131
G0 F6000 X84.668 Y151.984
G1 F1200 X75.009 Y142.325 E73.42564
G0 F6000 X75.009 Y141.76
G1 F1200 X85.233 Y151.984 E73.90654
G0 F6000 X85.799 Y151.984
G1 F1200 X75.009 Y141.194 E74.41407
G0 F6000 X75.009 Y140.628
G1 F1200 X86.365 Y151.984 E74.94822
G0 F6000 X86.931 Y151.984
G1 F1200 X75.009 Y140.063 E75.50897
G0 F6000 X75.009 Y139.497
G1 F1200 X87.496 Y151.984 E76.09632
G0 F6000 X88.062 Y151.984
G1 F1200 X75.009 Y138.931 E76.7103
G0 F6000 X75.009 Y138.365
G1 F1200 X88.628 Y151.984 E77.35089
G0 F6000 X89.193 Y151.984
G1 F1200 X75.009 Y137.8 E78.01806
G0 F6000 X75.009 Y137.234
G1 F1200 X89.759 Y151.984 E78.71186
G0 F6000 X90.325 Y151.984
G1 F1200 X75.009 Y136.668 E79.43228
G0 F6000 X75.009 Y136.103
G1 F1200 X90.89 Y151.984 E80.17927
G0 F6000 X91.456 Y151.984
G1 F1200 X75.009 Y135.537 E80.95289
G0 F6000 X75.009 Y134.971
G1 F1200 X92.022 Y151.984 E81.75313
G0 F6000 X92.587 Y151.984
G1 F1200 X75.009 Y134.406 E82.57994
G0 F6000 X75.009 Y133.84
G1 F1200 X93.153 Y151.984 E83.43338
G0 F6000 X93.719 Y151.984
G1 F1200 X75.009 Y133.274 E84.31344
G0 F6000 X75.009 Y132.709
G1 F1200 X94.284 Y151.984 E85.22008
G0 F6000 X94.85 Y151.984
G1 F1200 X75.009 Y132.143 E86.15334
G0 F6000 X75.009 Y131.577
G1 F1200 X95.416 Y151.984 E87.11322
G0 F6000 X95.981 Y151.984
G1 F1200 X75.009 Y131.012 E88.09968
G0 F6000 X75.009 Y130.446
G1 F1200 X96.547 Y151.984 E89.11276
G0 F6000 X97.113 Y151.984
G1 F1200 X75.009 Y129.88 E90.15246
G0 F6000 X75.009 Y129.314
G1 F1200 X97.679 Y151.984 E91.21879
G0 F6000 X98.244 Y151.984
G1 F1200 X75.009 Y128.749 E92.31169
G0 F6000 X75.009 Y128.183
G1 F1200 X98.81 Y151.984 E93.43122
G0 F6000 X99.376 Y151.984
G1 F1200 X75.009 Y127.617 E94.57737
G0 F6000 X75.009 Y127.052
G1 F1200 X99.941 Y151.984 E95.75009
G0 F6000 X100.507 Y151.984
G1 F1200 X75.009 Y126.486 E96.94944
G0 F6000 X75.009 Y125.92
G1 F1200 X101.073 Y151.984 E98.17541
G0 F6000 X101.638 Y151.984
G1 F1200 X75.009 Y125.355 E99.42796
G0 F6000 X75.009 Y124.789
G1 F1200 X102.204 Y151.984 E100.70713
G0 F6000 X102.77 Y151.984
G1 F1200 X75.009 Y124.223 E102.01292
G0 F6000 X75.009 Y123.658
G1 F1200 X103.336 Y151.985 E103.34534
G0 F6000 X103.902 Y151.985
G1 F1200 X75.009 Y123.092 E104.70437
G0 F6000 X75.009 Y122.526
G1 F1200 X104.467 Y151.985 E106.09001
G0 F6000 X105.033 Y151.985
G1 F1200 X75.009 Y121.961 E107.50225
G0 F6000 X75.009 Y121.395
G1 F1200 X105.599 Y151.985 E108.94111
G0 F6000 X106.165 Y151.985
G1 F1200 X75.009 Y120.829 E110.40659
G0 F6000 X75.009 Y120.264
G1 F1200 X106.73 Y151.985 E111.89865
G0 F6000 X107.296 Y151.985
G1 F1200 X75.009 Y119.698 E113.41733
G0 F6000 X75.009 Y119.132
G1 F1200 X107.862 Y151.985 E114.96264
G0 F6000 X108.427 Y151.985
G1 F1200 X75.009 Y118.566 E116.53454
G0 F6000 X75.009 Y118.001
G1 F1200 X108.993 Y151.985 E118.13304
G0 F6000 X109.559 Y151.985
G1 F1200 X75.009 Y117.435 E119.75817
G0 F6000 X75.009 Y116.869
G1 F1200 X110.124 Y151.985 E121.40989
G0 F6000 X110.69 Y151.985
G1 F1200 X75.009 Y116.304 E123.08822
G0 F6000 X75.009 Y115.738
G1 F1200 X111.256 Y151.985 E124.79317
G0 F6000 X111.821 Y151.985
G1 F1200 X75.009 Y115.172 E126.52471
G0 F6000 X75.009 Y114.607
G1 F1200 X112.387 Y151.985 E128.28286
G0 F6000 X112.953 Y151.985
G1 F1200 X75.009 Y114.041 E130.06763
G0 F6000 X75.009 Y113.475
G1 F1200 X113.518 Y151.985 E131.879
G0 F6000 X114.084 Y151.985
G1 F1200 X75.009 Y112.91 E133.71697
G0 F6000 X75.009 Y112.344
G1 F1200 X114.65 Y151.985 E135.58156
G0 F6000 X115.215 Y151.985
G1 F1200 X75.009 Y111.778 E137.47275
G0 F6000 X75.009 Y111.213
G1 F1200 X115.781 Y151.985 E139.39054
G0 F6000 X116.347 Y151.985
G1 F1200 X75.009 Y110.647 E141.33495
G0 F6000 X75.009 Y110.081
G1 F1200 X116.913 Y151.985 E143.30599
G0 F6000 X117.478 Y151.985
G1 F1200 X75.009 Y109.515 E145.30362
G0 F6000 X75.009 Y108.95
G1 F1200 X118.044 Y151.985 E147.32786
G0 F6000 X118.61 Y151.985
G1 F1200 X75.009 Y108.384 E149.37871
G0 F6000 X75.009 Y107.818
G1 F1200 X119.175 Y151.985 E151.45617
G0 F6000 X119.741 Y151.985
G1 F1200 X75.009 Y107.253 E153.56023
G0 F6000 X75.009 Y106.687
G1 F1200 X120.307 Y151.985 E155.69091
G0 F6000 X120.872 Y151.985
G1 F1200 X75.009 Y106.121 E157.84818
G0 F6000 X75.009 Y105.556
G1 F1200 X121.438 Y151.985 E160.03206
G0 F6000 X122.004 Y151.985
G1 F1200 X75.009 Y104.99 E162.24256
G0 F6000 X75.009 Y104.424
G1 F1200 X122.569 Y151.985 E164.47966
G0 F6000 X123.135 Y151.985
G1 F1200 X75.009 Y103.859 E166.74336
G0 F6000 X75.009 Y103.293
G1 F1200 X123.701 Y151.985 E169.03369
G0 F6000 X124.266 Y151.985
G1 F1200 X75.009 Y102.727 E171.35061
G0 F6000 X75.009 Y102.162
G1 F1200 X124.832 Y151.985 E173.69413
G0 F6000 X125.398 Y151.985
G1 F1200 X75.009 Y101.596 E176.06427
G0 F6000 X75.009 Y101.03
G1 F1200 X125.964 Y151.985 E178.46104
G0 F6000 X126.529 Y151.985
G1 F1200 X75.009 Y100.465 E180.88438
G0 F6000 X75.009 Y99.899
G1 F1200 X127.095 Y151.985 E183.33435
G0 F6000 X127.661 Y151.985
G1 F1200 X75.009 Y99.333 E185.81094
G0 F6000 X75.009 Y98.767
G1 F1200 X128.226 Y151.985 E188.31412
G0 F6000 X128.792 Y151.985
G1 F1200 X75.009 Y98.202 E190.84391
G0 F6000 X75.009 Y97.636
