;FLAVOR:Marlin
;TIME:22246
;Filament used: 14.383m
;Layer height: 0.2
;MINX:62.848
;MINY:28.352
;MINZ:0.2
;MAXX:172.141
;MAXY:206.647
;MAXZ:33.4
;Generated with Cura_SteamEngine 5.2.2
M140 S65
M105
M190 S65
M104 S235
M105
M109 S235
M82 ;absolute extrusion mode
; Ender 3 Custom Start G-code
G92 E0 ; Reset Extruder
G28 ; Home all axes
G1 Z2.0 F3000 ; Move Z Axis up little to prevent scratching of Heat Bed
G1 X0.1 Y20 Z0.3 F5000.0 ; Move to start position
G1 X0.1 Y200.0 Z0.3 F1500.0 E15 ; Draw the first line
G1 X0.4 Y200.0 Z0.3 F5000.0 ; Move to side a little
G1 X0.4 Y20 Z0.3 F1500.0 E30 ; Draw the second line
G92 E0 ; Reset Extruder
G1 Z2.0 F3000 ; Move Z Axis up little to prevent scratching of Heat Bed
G1 X5 Y20 Z0.3 F5000.0 ; Move over to prevent blob squish
G92 E0
G92 E0
G1 F1500 E-2
;LAYER_COUNT:167
;LAYER:0
M107
G0 F6000 X64.176 Y34.633 Z0.2
;TYPE:SKIRT
G1 F1500 E0
G1 F1200 X64.636 Y33.816 E0.03118
G1 X65.164 Y33.041 E0.06237
G1 X65.756 Y32.313 E0.09358
G1 X66.409 Y31.639 E0.1248
G1 X66.995 Y31.121 E0.15081
G1 X67.22 Y30.936 E0.1605
G1 X67.969 Y30.372 E0.19168
G1 X68.764 Y29.874 E0.22288
G1 X69.598 Y29.445 E0.25408
G1 X70.79 Y28.97 E0.29676
G1 X71.813 Y28.674 E0.33218
G1 X72.733 Y28.491 E0.36338
G1 X73.665 Y28.387 E0.39457
G1 X74.273 Y28.362 E0.41481
G1 X75.094 Y28.352 E0.44211
G1 X159.992 Y28.354 E3.26583
G1 X160.788 Y28.366 E3.29231
G1 X161.724 Y28.42 E3.32349
G1 X162.652 Y28.554 E3.35468
G1 X163.566 Y28.766 E3.38589
G1 X164.458 Y29.056 E3.41708
G1 X165.322 Y29.42 E3.44827
G1 X166.364 Y29.982 E3.48764
G1 X166.766 Y30.228 E3.50332
G1 X167.544 Y30.752 E3.53452
G1 X168.275 Y31.339 E3.5657
G1 X168.953 Y31.987 E3.59689
G1 X169.574 Y32.69 E3.62809
G1 X170.132 Y33.443 E3.65926
G1 X170.625 Y34.242 E3.69049
G1 X171.047 Y35.079 E3.72167
G1 X171.397 Y35.949 E3.75286
G1 X171.636 Y36.714 E3.77951
G1 X171.743 Y37.106 E3.79303
G1 X171.951 Y38.021 E3.82424
G1 X172.08 Y38.95 E3.85543
G1 X172.128 Y39.766 E3.88262
G1 X172.141 Y40.467 E3.90594
G1 X172.139 Y109.558 E6.20391
G1 X172.129 Y110.265 E6.22743
G1 X172.112 Y110.747 E6.24347
G1 X171.938 Y113.739 E6.34316
G1 X171.867 Y116.259 E6.427
G1 X171.867 Y118.747 E6.50976
G1 X171.939 Y121.308 E6.59497
G1 X172.038 Y123.18 E6.65732
G1 X172.109 Y124.311 E6.69501
G1 X172.129 Y124.771 E6.71032
G1 X172.141 Y125.481 E6.73394
G1 X172.139 Y194.518 E9.03012
G1 X172.129 Y195.254 E9.0546
G1 X172.076 Y196.191 E9.08582
G1 X171.944 Y197.119 E9.11699
G1 X171.733 Y198.033 E9.14819
G1 X171.445 Y198.926 E9.1794
G1 X170.905 Y200.15 E9.2239
G1 X170.745 Y200.46 E9.2355
G1 X170.28 Y201.274 E9.26668
G1 X169.747 Y202.046 E9.29788
G1 X169.15 Y202.77 E9.32909
G1 X168.494 Y203.44 E9.36028
G1 X167.783 Y204.051 E9.39146
G1 X167.056 Y204.578 E9.42133
G1 X166.788 Y204.756 E9.43203
G1 X165.985 Y205.241 E9.46323
G1 X165.144 Y205.656 E9.49442
G1 X164.271 Y205.998 E9.5256
G1 X162.845 Y206.388 E9.57478
G1 X161.786 Y206.561 E9.61046
G1 X160.818 Y206.634 E9.64275
G1 X160.22 Y206.647 E9.66265
G1 X74.957 Y206.646 E12.4985
G1 X74.159 Y206.635 E12.52505
G1 X73.223 Y206.582 E12.55623
G1 X72.295 Y206.45 E12.58741
G1 X71.381 Y206.239 E12.61861
G1 X70.488 Y205.95 E12.64982
G1 X69.624 Y205.587 E12.68099
G1 X68.793 Y205.152 E12.71219
G1 X68.002 Y204.647 E12.7434
G1 X67.486 Y204.263 E12.7648
G1 X67.146 Y203.994 E12.77922
G1 X66.436 Y203.381 E12.81042
G1 X65.781 Y202.71 E12.8416
G1 X65.185 Y201.985 E12.87282
G1 X64.653 Y201.213 E12.904
G1 X64.189 Y200.398 E12.93519
G1 X63.752 Y199.439 E12.97025
G1 X63.648 Y199.178 E12.97959
G1 X63.339 Y198.293 E13.01077
G1 X63.105 Y197.384 E13.04199
G1 X62.951 Y196.459 E13.07318
G1 X62.869 Y195.313 E13.11139
G1 X62.848 Y194.095 E13.15191
G1 X62.849 Y125.471 E15.43435
G1 X62.859 Y124.757 E15.4581
G1 X62.877 Y124.271 E15.47428
G1 X63.051 Y121.286 E15.57373
G1 X63.122 Y118.747 E15.65821
G1 X63.122 Y116.223 E15.74216
G1 X63.051 Y113.751 E15.82441
G1 X62.942 Y111.974 E15.88362
G1 X62.886 Y110.916 E15.91886
G1 X62.873 Y110.542 E15.93131
G1 X62.848 Y109.115 E15.97878
G1 X62.849 Y40.436 E18.26305
G1 X62.86 Y39.744 E18.28607
G1 X62.915 Y38.808 E18.31725
G1 X63.05 Y37.88 E18.34844
G1 X63.263 Y36.966 E18.37966
G1 X63.665 Y35.787 E18.42109
G1 X63.787 Y35.486 E18.43189
G1 X64.176 Y34.633 E18.46307
G0 F6000 X64.54 Y34.799
G1 F1200 X64.994 Y33.998 E18.4937
G1 X65.515 Y33.239 E18.52432
G1 X66.101 Y32.529 E18.55494
G1 X66.745 Y31.872 E18.58553
G1 X67.249 Y31.43 E18.60783
G1 X67.474 Y31.245 E18.61752
G1 X68.21 Y30.692 E18.64814
G1 X68.991 Y30.205 E18.67875
G1 X69.811 Y29.787 E18.70936
G1 X70.922 Y29.348 E18.7491
G1 X71.924 Y29.059 E18.78378
G1 X72.828 Y28.881 E18.81443
G1 X73.743 Y28.783 E18.84503
G1 X74.278 Y28.762 E18.86284
G1 X75.094 Y28.752 E18.88998
G1 X159.986 Y28.754 E21.7135
G1 X160.782 Y28.766 E21.73998
G1 X161.701 Y28.82 E21.7706
G1 X162.612 Y28.953 E21.80122
G1 X163.508 Y29.165 E21.83184
G1 X164.382 Y29.454 E21.86246
G1 X165.228 Y29.818 E21.89309
G1 X166.155 Y30.324 E21.92822
G1 X166.557 Y30.57 E21.9439
G1 X167.321 Y31.084 E21.97452
G1 X168.037 Y31.662 E22.00513
G1 X168.7 Y32.301 E22.03575
G1 X169.305 Y32.994 E22.06635
G1 X169.848 Y33.738 E22.09699
G1 X170.325 Y34.526 E22.12762
G1 X170.731 Y35.352 E22.15823
G1 X171.064 Y36.21 E22.18885
G1 X171.25 Y36.82 E22.21006
G1 X171.357 Y37.212 E22.22357
G1 X171.561 Y38.11 E22.2542
G1 X171.685 Y39.022 E22.28481
G1 X171.729 Y39.775 E22.3099
G1 X171.741 Y40.467 E22.33292
G1 X171.739 Y109.552 E24.6307
G1 X171.729 Y110.259 E24.65421
G1 X171.712 Y110.723 E24.66966
G1 X171.539 Y113.703 E24.76894
G1 X171.467 Y116.248 E24.85362
G1 X171.467 Y118.758 E24.9371
G1 X171.54 Y121.341 E25.02305
G1 X171.632 Y123.094 E25.08143
G1 X171.71 Y124.336 E25.12282
G1 X171.729 Y124.78 E25.1376
G1 X171.741 Y125.481 E25.16092
G1 X171.739 Y194.513 E27.45694
G1 X171.729 Y195.249 E27.48142
G1 X171.677 Y196.168 E27.51203
G1 X171.545 Y197.079 E27.54265
G1 X171.334 Y197.976 E27.5733
G1 X171.046 Y198.85 E27.6039
G1 X170.549 Y199.967 E27.64457
G1 X170.389 Y200.277 E27.65617
G1 X169.932 Y201.076 E27.68679
G1 X169.407 Y201.832 E27.7174
G1 X168.818 Y202.54 E27.74803
G1 X168.171 Y203.194 E27.77863
G1 X167.468 Y203.789 E27.80926
G1 X166.835 Y204.245 E27.83521
G1 X166.567 Y204.423 E27.84591
G1 X165.778 Y204.898 E27.87654
G1 X164.952 Y205.304 E27.90715
G1 X164.093 Y205.636 E27.93778
G1 X162.761 Y205.998 E27.98369
G1 X161.722 Y206.166 E28.0187
G1 X160.806 Y206.234 E28.04925
G1 X160.22 Y206.247 E28.06874
G1 X74.963 Y206.246 E30.9044
G1 X74.165 Y206.235 E30.93095
G1 X73.246 Y206.182 E30.96156
G1 X72.335 Y206.05 E30.99218
G1 X71.438 Y205.839 E31.02283
G1 X70.564 Y205.552 E31.05343
G1 X69.718 Y205.189 E31.08404
G1 X68.906 Y204.754 E31.11468
G1 X68.135 Y204.251 E31.1453
G1 X67.734 Y203.949 E31.162
G1 X67.394 Y203.68 E31.17642
G1 X66.698 Y203.078 E31.20702
G1 X66.056 Y202.418 E31.23765
G1 X65.474 Y201.704 E31.26829
G1 X64.956 Y200.943 E31.2989
G1 X64.506 Y200.14 E31.32952
G1 X64.124 Y199.291 E31.36048
G1 X64.02 Y199.03 E31.36983
G1 X63.717 Y198.16 E31.40047
G1 X63.49 Y197.268 E31.43108
G1 X63.341 Y196.36 E31.46169
G1 X63.269 Y195.305 E31.49686
G1 X63.248 Y194.095 E31.53711
G1 X63.249 Y125.477 E33.81935
G1 X63.259 Y124.763 E33.8431
G1 X63.276 Y124.294 E33.85871
G1 X63.451 Y121.287 E33.9589
G1 X63.522 Y118.758 E34.04304
G1 X63.522 Y116.246 E34.12659
G1 X63.45 Y113.714 E34.21084
G1 X63.342 Y111.953 E34.26952
G1 X63.273 Y110.535 E34.31674
G1 X63.248 Y109.115 E34.36398
G1 X63.249 Y40.443 E36.64802
G1 X63.26 Y39.751 E36.67104
G1 X63.315 Y38.831 E36.70169
G1 X63.449 Y37.921 E36.73228
G1 X63.662 Y37.025 E36.76292
G1 X64.035 Y35.937 E36.80117
G1 X64.157 Y35.636 E36.81197
G1 X64.54 Y34.799 E36.84259
G0 F6000 X64.904 Y34.965
G1 F1200 X65.351 Y34.181 E36.8726
G1 X65.866 Y33.439 E36.90264
G1 X66.444 Y32.745 E36.93268
G1 X67.082 Y32.105 E36.96274
G1 X67.503 Y31.739 E36.9813
G1 X67.728 Y31.554 E36.99098
G1 X68.45 Y31.012 E37.02101
G1 X69.218 Y30.536 E37.05106
G1 X70.024 Y30.13 E37.08108
G1 X71.053 Y29.727 E37.11784
G1 X72.035 Y29.444 E37.15183
G1 X72.922 Y29.272 E37.18188
G1 X73.82 Y29.179 E37.2119
G1 X74.284 Y29.162 E37.22735
G1 X75.094 Y29.152 E37.25429
G1 X159.98 Y29.154 E40.07761
G1 X160.776 Y29.166 E40.10409
G1 X161.677 Y29.22 E40.13411
G1 X162.571 Y29.353 E40.16417
G1 X163.448 Y29.564 E40.19417
G1 X164.304 Y29.853 E40.22422
G1 X165.131 Y30.216 E40.25426
G1 X165.946 Y30.665 E40.28521
G1 X166.348 Y30.911 E40.30089
G1 X167.097 Y31.416 E40.33093
G1 X167.798 Y31.985 E40.36096
G1 X168.446 Y32.614 E40.391
G1 X169.036 Y33.298 E40.42104
G1 X169.563 Y34.031 E40.45107
G1 X170.023 Y34.809 E40.48113
G1 X170.412 Y35.623 E40.51113
G1 X170.728 Y36.469 E40.54117
G1 X170.864 Y36.925 E40.557
G1 X170.971 Y37.317 E40.57051
G1 X171.17 Y38.198 E40.60055
G1 X171.29 Y39.093 E40.63059
G1 X171.329 Y39.783 E40.65357
G1 X171.341 Y40.467 E40.67633
G1 X171.339 Y109.546 E42.9739
G1 X171.329 Y110.253 E42.99742
G1 X171.313 Y110.7 E43.0123
G1 X171.139 Y113.703 E43.11235
G1 X171.067 Y116.236 E43.19663
G1 X171.067 Y118.77 E43.28091
G1 X171.139 Y121.331 E43.36612
G1 X171.237 Y123.176 E43.42757
G1 X171.311 Y124.361 E43.46706
G1 X171.329 Y124.788 E43.48128
G1 X171.341 Y125.481 E43.50433
G1 X171.339 Y194.508 E45.80018
G1 X171.329 Y195.244 E45.82466
G1 X171.277 Y196.145 E45.85468
G1 X171.145 Y197.039 E45.88473
G1 X170.935 Y197.917 E45.91476
G1 X170.648 Y198.773 E45.94479
G1 X170.194 Y199.783 E45.98162
G1 X170.034 Y200.093 E45.99322
G1 X169.585 Y200.877 E46.02327
G1 X169.068 Y201.617 E46.0533
G1 X168.487 Y202.309 E46.08335
G1 X167.848 Y202.947 E46.11338
G1 X167.155 Y203.526 E46.14342
G1 X166.613 Y203.912 E46.16555
G1 X166.345 Y204.09 E46.17625
G1 X165.572 Y204.556 E46.20627
G1 X164.76 Y204.951 E46.2363
G1 X163.916 Y205.273 E46.26635
G1 X162.678 Y205.606 E46.30899
G1 X161.658 Y205.771 E46.34335
G1 X160.794 Y205.834 E46.37217
G1 X160.22 Y205.847 E46.39126
G1 X74.968 Y205.846 E49.22676
G1 X74.17 Y205.835 E49.2533
G1 X73.269 Y205.783 E49.28332
G1 X72.375 Y205.651 E49.31337
G1 X71.497 Y205.44 E49.34341
G1 X70.641 Y205.153 E49.37344
G1 X69.814 Y204.791 E49.40346
G1 X69.021 Y204.357 E49.43353
G1 X67.982 Y203.635 E49.47561
G1 X67.642 Y203.366 E49.49003
G1 X66.959 Y202.775 E49.52007
G1 X66.332 Y202.126 E49.55009
G1 X65.764 Y201.424 E49.58012
G1 X65.26 Y200.674 E49.61017
G1 X64.825 Y199.883 E49.6402
G1 X64.496 Y199.143 E49.66713
G1 X64.392 Y198.882 E49.67648
G1 X64.095 Y198.029 E49.70652
G1 X63.874 Y197.153 E49.73657
G1 X63.733 Y196.261 E49.76661
G1 X63.669 Y195.298 E49.79871
G1 X63.648 Y194.095 E49.83872
G1 X63.649 Y125.482 E52.1208
G1 X63.659 Y124.768 E52.14455
G1 X63.675 Y124.317 E52.15956
G1 X63.852 Y121.288 E52.26048
G1 X63.922 Y118.769 E52.34429
G1 X63.922 Y116.235 E52.42857
G1 X63.85 Y113.71 E52.51259
G1 X63.741 Y111.932 E52.57184
G1 X63.673 Y110.527 E52.61862
G1 X63.648 Y109.115 E52.66559
G1 X63.649 Y40.449 E54.94943
G1 X63.66 Y39.757 E54.97245
G1 X63.715 Y38.855 E55.00251
G1 X63.848 Y37.962 E55.03254
G1 X64.061 Y37.084 E55.06259
G1 X64.406 Y36.088 E55.09765
G1 X64.528 Y35.787 E55.10845
G1 X64.904 Y34.965 E55.13851
G1 F1500 E53.13851
;MESH:YAPP_esp8266_relays.stl
G0 F6000 X73.262 Y39.594
G0 X74.502 Y110.047
;TYPE:WALL-INNER
G1 F1500 E55.13851
G1 F1200 X160.471 Y110.046 E57.99785
G1 X160.54 Y109.96 E58.00152
G1 X160.54 Y39.999 E60.32843
G1 X160.471 Y39.953 E60.33119
G1 X74.504 Y39.953 E63.19046
G1 X74.449 Y40.035 E63.19375
G1 X74.448 Y109.968 E65.51973
G1 X74.502 Y110.047 E65.52291
G0 F6000 X74.134 Y110.261
;TYPE:WALL-OUTER
G1 F1200 X74.314 Y110.41 E65.53068
G1 X74.43 Y110.447 E65.53473
G1 X160.588 Y110.446 E68.40036
G1 X160.811 Y110.304 E68.40915
G1 X160.94 Y110.058 E68.41839
G1 X160.94 Y40.029 E70.74757
G1 X160.877 Y39.778 E70.75617
G1 X160.824 Y39.705 E70.75917
G1 X160.586 Y39.553 E70.76857
G1 X74.434 Y39.553 E73.63399
G1 X74.315 Y39.591 E73.63815
G1 X74.138 Y39.736 E73.64576
G1 X74.049 Y39.957 E73.65368
G1 X74.048 Y110.045 E75.98482
G1 X74.134 Y110.261 E75.99255
G0 F6000 X74.809 Y109.686
;TYPE:SKIN
G1 F1200 X160.18 Y109.687 E78.832
G1 X160.18 Y40.314 E81.13936
G1 X74.809 Y40.314 E83.97881
G1 X74.809 Y109.686 E86.28613
G0 F6000 X75.543 Y109.484
G1 F1200 X75.008 Y108.949 E86.3113
G0 F6000 X75.008 Y108.383
G1 F1200 X76.109 Y109.484 E86.36308
G0 F6000 X76.675 Y109.484
G1 F1200 X75.008 Y107.818 E86.44147
G0 F6000 X75.008 Y107.252
G1 F1200 X77.24 Y109.484 E86.54646
G0 F6000 X77.806 Y109.484
G1 F1200 X75.008 Y106.686 E86.67807
G0 F6000 X75.008 Y106.121
G1 F1200 X78.372 Y109.484 E86.83628
G0 F6000 X78.937 Y109.484
G1 F1200 X75.008 Y105.555 E87.02108
G0 F6000 X75.008 Y104.989
G1 F1200 X79.503 Y109.484 E87.23251
G0 F6000 X80.069 Y109.484
G1 F1200 X75.008 Y104.424 E87.47054
G0 F6000 X75.008 Y103.858
G1 F1200 X80.634 Y109.484 E87.73517
G0 F6000 X81.2 Y109.484
G1 F1200 X75.008 Y103.292 E88.02643
G0 F6000 X75.008 Y102.727
G1 F1200 X81.766 Y109.484 E88.34428
G0 F6000 X82.331 Y109.484
G1 F1200 X75.008 Y102.161 E88.68873
G0 F6000 X75.008 Y101.595
G1 F1200 X82.897 Y109.484 E89.05981
G0 F6000 X83.463 Y109.484
G1 F1200 X75.008 Y101.03 E89.45748
G0 F6000 X75.008 Y100.464
G1 F1200 X84.029 Y109.484 E89.88178
G0 F6000 X84.594 Y109.484
G1 F1200 X75.008 Y99.898 E90.33267
G0 F6000 X75.008 Y99.332
G1 F1200 X85.16 Y109.484 E90.81019
G0 F6000 X85.726 Y109.484
G1 F1200 X75.008 Y98.767 E91.31431
G0 F6000 X75.008 Y98.201
G1 F1200 X86.291 Y109.484 E91.84503
G0 F6000 X86.857 Y109.484
G1 F1200 X75.008 Y97.635 E92.40237
G0 F6000 X75.008 Y97.07
G1 F1200 X87.423 Y109.484 E92.98631
G0 F6000 X87.988 Y109.484
G1 F1200 X75.008 Y96.504 E93.59685
G0 F6000 X75.008 Y95.938
G1 F1200 X88.554 Y109.484 E94.23401
G0 F6000 X89.12 Y109.484
G1 F1200 X75.008 Y95.373 E94.89777
G0 F6000 X75.008 Y94.807
G1 F1200 X89.685 Y109.484 E95.58813
G0 F6000 X90.251 Y109.484
G1 F1200 X75.008 Y94.241 E96.30512
G0 F6000 X75.008 Y93.676
G1 F1200 X90.817 Y109.484 E97.0487
G0 F6000 X91.382 Y109.484
G1 F1200 X75.008 Y93.11 E97.81888
G0 F6000 X75.008 Y92.544
G1 F1200 X91.948 Y109.484 E98.61569
G0 F6000 X92.514 Y109.484
G1 F1200 X75.008 Y91.979 E99.43909
G0 F6000 X75.008 Y91.413
G1 F1200 X93.08 Y109.484 E100.28912
G0 F6000 X93.645 Y109.484
G1 F1200 X75.008 Y90.847 E101.16575
G0 F6000 X75.008 Y90.281
G1 F1200 X94.211 Y109.484 E102.069
G0 F6000 X94.777 Y109.484
G1 F1200 X75.008 Y89.716 E102.99885
G0 F6000 X75.008 Y89.15
G1 F1200 X95.342 Y109.484 E103.9553
G0 F6000 X95.908 Y109.484
G1 F1200 X75.008 Y88.584 E104.93837
G0 F6000 X75.008 Y88.019
G1 F1200 X96.474 Y109.484 E105.94804
G0 F6000 X97.039 Y109.484
G1 F1200 X75.008 Y87.453 E106.98431
G0 F6000 X75.008 Y86.887
G1 F1200 X97.605 Y109.484 E108.0472
G0 F6000 X98.171 Y109.484
G1 F1200 X75.008 Y86.322 E109.1367
G0 F6000 X75.008 Y85.756
G1 F1200 X98.736 Y109.484 E110.25279
G0 F6000 X99.302 Y109.484
G1 F1200 X75.008 Y85.19 E111.3955
G0 F6000 X75.008 Y84.625
G1 F1200 X99.868 Y109.484 E112.56482
G0 F6000 X100.433 Y109.484
G1 F1200 X75.008 Y84.059 E113.76073
G0 F6000 X75.008 Y83.493
G1 F1200 X100.999 Y109.484 E114.98327
G0 F6000 X101.565 Y109.484
G1 F1200 X75.008 Y82.928 E116.23241
G0 F6000 X75.008 Y82.362
G1 F1200 X102.13 Y109.484 E117.50814
G0 F6000 X102.696 Y109.484
G1 F1200 X75.008 Y81.796 E118.8105
G0 F6000 X75.008 Y81.231
G1 F1200 X103.262 Y109.484 E120.13946
G0 F6000 X103.828 Y109.485
G1 F1200 X75.008 Y80.665 E121.49506
G0 F6000 X75.008 Y80.099
G1 F1200 X104.394 Y109.485 E122.87729
G0 F6000 X104.96 Y109.485
G1 F1200 X75.008 Y79.533 E124.28614
G0 F6000 X75.008 Y78.968
G1 F1200 X105.525 Y109.485 E125.72157
G0 F6000 X106.091 Y109.485
G1 F1200 X75.008 Y78.402 E127.18362
G0 F6000 X75.008 Y77.836
G1 F1200 X106.657 Y109.485 E128.67229
G0 F6000 X107.222 Y109.485
G1 F1200 X75.008 Y77.271 E130.18754
G0 F6000 X75.008 Y76.705
G1 F1200 X107.788 Y109.485 E131.72941
G0 F6000 X108.354 Y109.485
G1 F1200 X75.008 Y76.139 E133.2979
G0 F6000 X75.008 Y75.574
G1 F1200 X108.919 Y109.485 E134.89297
G0 F6000 X109.485 Y109.485
G1 F1200 X75.008 Y75.008 E136.51466
G0 F6000 X75.008 Y74.442
G1 F1200 X110.051 Y109.485 E138.16298
G0 F6000 X110.616 Y109.485
G1 F1200 X75.008 Y73.877 E139.83787
G0 F6000 X75.008 Y73.311
G1 F1200 X111.182 Y109.485 E141.53938
G0 F6000 X111.748 Y109.485
G1 F1200 X75.008 Y72.745 E143.26752
G0 F6000 X75.008 Y72.18
G1 F1200 X112.314 Y109.485 E145.02226
G0 F6000 X112.879 Y109.485
