;FLAVOR:Marlin
;TIME:16031
;Filament used: 10.1145m
;Layer height: 0.2
;MINX:62.848
;MINY:70.852
;MINZ:0.2
;MAXX:172.141
;MAXY:164.147
;MAXZ:33.4
;Generated with Cura_SteamEngine 5.2.2
M140 S65
M105
M190 S65
M104 S235
M105
M109 S235
M82 ;absolute extrusion mode
; Ender 3 Custom Start G-code
G92 E0 ; Reset Extruder
G28 ; Home all axes
G1 Z2.0 F3000 ; Move Z Axis up little to prevent scratching of Heat Bed
G1 X0.1 Y20 Z0.3 F5000.0 ; Move to start position
G1 X0.1 Y200.0 Z0.3 F1500.0 E15 ; Draw the first line
G1 X0.4 Y200.0 Z0.3 F5000.0 ; Move to side a little
G1 X0.4 Y20 Z0.3 F1500.0 E30 ; Draw the second line
G92 E0 ; Reset Extruder
G1 Z2.0 F3000 ; Move Z Axis up little to prevent scratching of Heat Bed
G1 X5 Y20 Z0.3 F5000.0 ; Move over to prevent blob squish
G92 E0
G92 E0
G1 F1500 E-2
;LAYER_COUNT:167
;LAYER:0
M107
G0 F6000 X66.409 Y74.139 Z0.2
;TYPE:SKIRT
G1 F1500 E0
G1 F1200 X66.995 Y73.621 E0.02601
G1 X67.22 Y73.436 E0.0357
G1 X67.969 Y72.872 E0.06689
G1 X68.764 Y72.374 E0.09809
G1 X69.598 Y71.945 E0.12928
G1 X70.79 Y71.47 E0.17196
G1 X71.813 Y71.174 E0.20738
G1 X72.733 Y70.991 E0.23858
G1 X73.665 Y70.887 E0.26977
G1 X74.273 Y70.862 E0.29001
G1 X75.094 Y70.852 E0.31732
G1 X159.992 Y70.854 E3.14104
G1 X160.788 Y70.866 E3.16751
G1 X161.724 Y70.92 E3.1987
G1 X162.652 Y71.054 E3.22988
G1 X163.566 Y71.266 E3.26109
G1 X164.458 Y71.556 E3.29229
G1 X165.322 Y71.92 E3.32347
G1 X166.364 Y72.482 E3.36285
G1 X166.766 Y72.728 E3.37852
G1 X167.544 Y73.252 E3.40972
G1 X168.275 Y73.839 E3.4409
G1 X168.953 Y74.487 E3.4721
G1 X169.574 Y75.19 E3.50329
G1 X170.132 Y75.943 E3.53447
G1 X170.625 Y76.742 E3.56569
G1 X171.047 Y77.579 E3.59687
G1 X171.397 Y78.449 E3.62806
G1 X171.636 Y79.214 E3.65472
G1 X171.743 Y79.606 E3.66823
G1 X171.951 Y80.521 E3.69944
G1 X172.08 Y81.45 E3.73064
G1 X172.128 Y82.266 E3.75782
G1 X172.141 Y82.967 E3.78114
G1 X172.139 Y152.02 E6.07785
G1 X172.129 Y152.755 E6.1023
G1 X172.076 Y153.691 E6.13348
G1 X171.944 Y154.62 E6.16469
G1 X171.733 Y155.533 E6.19586
G1 X171.445 Y156.426 E6.22707
G1 X170.9 Y157.66 E6.27194
G1 X170.737 Y157.975 E6.28373
G1 X170.27 Y158.789 E6.31494
G1 X169.737 Y159.56 E6.34612
G1 X169.139 Y160.283 E6.37733
G1 X168.482 Y160.953 E6.40854
G1 X167.771 Y161.564 E6.43972
G1 X167.062 Y162.077 E6.46882
G1 X166.751 Y162.284 E6.48125
G1 X165.949 Y162.77 E6.51244
G1 X165.108 Y163.186 E6.54365
G1 X164.235 Y163.528 E6.57483
G1 X163.336 Y163.796 E6.60603
G1 X162.417 Y163.985 E6.63724
G1 X161.486 Y164.096 E6.66842
G1 X160.86 Y164.125 E6.68927
G1 X159.579 Y164.147 E6.73188
G1 X74.957 Y164.146 E9.54642
G1 X74.159 Y164.135 E9.57296
G1 X73.223 Y164.082 E9.60414
G1 X72.295 Y163.95 E9.63532
G1 X71.381 Y163.739 E9.66652
G1 X70.488 Y163.45 E9.69774
G1 X69.624 Y163.087 E9.72891
G1 X68.793 Y162.652 E9.7601
G1 X68.002 Y162.147 E9.79132
G1 X67.486 Y161.763 E9.81271
G1 X67.146 Y161.494 E9.82713
G1 X66.436 Y160.881 E9.85833
G1 X65.781 Y160.21 E9.88952
G1 X65.185 Y159.485 E9.92073
G1 X64.653 Y158.713 E9.95191
G1 X64.189 Y157.898 E9.98311
G1 X63.752 Y156.939 E10.01816
G1 X63.648 Y156.678 E10.0275
G1 X63.339 Y155.793 E10.05868
G1 X63.105 Y154.884 E10.0899
G1 X62.951 Y153.959 E10.12109
G1 X62.869 Y152.813 E10.1593
G1 X62.848 Y151.595 E10.19982
G1 X62.849 Y82.936 E12.48343
G1 X62.86 Y82.244 E12.50645
G1 X62.915 Y81.308 E12.53763
G1 X63.05 Y80.38 E12.56882
G1 X63.263 Y79.466 E12.60004
G1 X63.665 Y78.287 E12.64147
G1 X63.787 Y77.986 E12.65227
G1 X64.176 Y77.133 E12.68345
G1 X64.636 Y76.316 E12.71464
G1 X65.164 Y75.541 E12.74583
G1 X65.756 Y74.813 E12.77703
G1 X66.409 Y74.139 E12.80825
G0 F6000 X66.745 Y74.372
G1 F1200 X67.249 Y73.93 E12.83054
G1 X67.474 Y73.745 E12.84023
G1 X68.21 Y73.192 E12.87085
G1 X68.991 Y72.705 E12.90146
G1 X69.811 Y72.287 E12.93208
G1 X70.922 Y71.848 E12.97181
G1 X71.924 Y71.559 E13.00649
G1 X72.828 Y71.381 E13.03714
G1 X73.743 Y71.283 E13.06774
G1 X74.278 Y71.262 E13.08555
G1 X75.094 Y71.252 E13.11269
G1 X159.986 Y71.254 E15.93621
G1 X160.782 Y71.266 E15.96269
G1 X161.701 Y71.32 E15.99331
G1 X162.612 Y71.453 E16.02393
G1 X163.508 Y71.665 E16.05456
G1 X164.382 Y71.954 E16.08517
G1 X165.228 Y72.318 E16.11581
G1 X166.155 Y72.824 E16.15093
G1 X166.557 Y73.07 E16.16661
G1 X167.321 Y73.584 E16.19723
G1 X168.037 Y74.162 E16.22784
G1 X168.7 Y74.801 E16.25847
G1 X169.305 Y75.494 E16.28906
G1 X169.848 Y76.238 E16.3197
G1 X170.325 Y77.026 E16.35033
G1 X170.731 Y77.852 E16.38095
G1 X171.064 Y78.71 E16.41156
G1 X171.25 Y79.32 E16.43277
G1 X171.357 Y79.712 E16.44628
G1 X171.561 Y80.61 E16.47691
G1 X171.685 Y81.522 E16.50752
G1 X171.729 Y82.275 E16.53261
G1 X171.741 Y82.967 E16.55563
G1 X171.739 Y152.014 E18.85214
G1 X171.729 Y152.749 E18.87659
G1 X171.677 Y153.668 E18.90721
G1 X171.544 Y154.579 E18.93783
G1 X171.334 Y155.476 E18.96847
G1 X171.046 Y156.35 E18.99908
G1 X170.544 Y157.477 E19.04011
G1 X170.381 Y157.792 E19.05191
G1 X169.923 Y158.59 E19.08251
G1 X169.397 Y159.346 E19.11314
G1 X168.808 Y160.053 E19.14375
G1 X168.159 Y160.707 E19.17439
G1 X167.457 Y161.301 E19.20498
G1 X166.84 Y161.744 E19.23024
G1 X166.529 Y161.951 E19.24267
G1 X165.741 Y162.427 E19.27329
G1 X164.915 Y162.834 E19.30391
G1 X164.057 Y163.167 E19.33452
G1 X163.173 Y163.424 E19.36514
G1 X162.27 Y163.603 E19.39576
G1 X161.355 Y163.704 E19.42638
G1 X160.853 Y163.725 E19.44309
G1 X159.579 Y163.747 E19.48547
G1 X74.963 Y163.746 E22.29981
G1 X74.165 Y163.735 E22.32636
G1 X73.246 Y163.682 E22.35697
G1 X72.335 Y163.55 E22.38759
G1 X71.438 Y163.339 E22.41824
G1 X70.564 Y163.052 E22.44883
G1 X69.718 Y162.689 E22.47945
G1 X68.906 Y162.254 E22.51009
G1 X68.135 Y161.751 E22.54071
G1 X67.734 Y161.449 E22.55741
G1 X67.394 Y161.18 E22.57183
G1 X66.698 Y160.578 E22.60243
G1 X66.056 Y159.918 E22.63306
G1 X65.474 Y159.204 E22.66369
G1 X64.956 Y158.443 E22.69431
G1 X64.506 Y157.64 E22.72493
G1 X64.124 Y156.791 E22.75589
G1 X64.02 Y156.53 E22.76524
G1 X63.717 Y155.66 E22.79588
G1 X63.49 Y154.768 E22.82649
G1 X63.341 Y153.86 E22.8571
G1 X63.269 Y152.805 E22.89227
G1 X63.248 Y151.595 E22.93252
G1 X63.249 Y82.943 E25.21589
G1 X63.26 Y82.251 E25.23891
G1 X63.315 Y81.331 E25.26957
G1 X63.449 Y80.421 E25.30016
G1 X63.662 Y79.525 E25.33079
G1 X64.035 Y78.437 E25.36904
G1 X64.157 Y78.136 E25.37985
G1 X64.54 Y77.299 E25.41046
G1 X64.994 Y76.498 E25.44109
G1 X65.515 Y75.739 E25.4717
G1 X66.101 Y75.029 E25.50232
G1 X66.745 Y74.372 E25.53292
G0 F6000 X67.082 Y74.605
G1 F1200 X67.503 Y74.239 E25.55148
G1 X67.728 Y74.054 E25.56117
G1 X68.45 Y73.512 E25.59119
G1 X69.218 Y73.036 E25.62124
G1 X70.024 Y72.63 E25.65126
G1 X71.053 Y72.227 E25.68802
G1 X72.035 Y71.944 E25.72201
G1 X72.922 Y71.772 E25.75206
G1 X73.82 Y71.679 E25.78209
G1 X74.284 Y71.662 E25.79753
G1 X75.094 Y71.652 E25.82447
G1 X159.98 Y71.654 E28.64779
G1 X160.776 Y71.666 E28.67427
G1 X161.677 Y71.72 E28.70429
G1 X162.571 Y71.853 E28.73435
G1 X163.448 Y72.064 E28.76435
G1 X164.304 Y72.353 E28.7944
G1 X165.131 Y72.716 E28.82444
G1 X165.946 Y73.165 E28.85539
G1 X166.348 Y73.411 E28.87107
G1 X167.097 Y73.916 E28.90111
G1 X167.798 Y74.485 E28.93114
G1 X168.446 Y75.114 E28.96118
G1 X169.036 Y75.798 E28.99122
G1 X169.563 Y76.531 E29.02125
G1 X170.023 Y77.309 E29.05131
G1 X170.412 Y78.123 E29.08132
G1 X170.728 Y78.969 E29.11135
G1 X170.864 Y79.425 E29.12718
G1 X170.971 Y79.817 E29.1407
G1 X171.17 Y80.698 E29.17074
G1 X171.29 Y81.593 E29.20077
G1 X171.329 Y82.283 E29.22376
G1 X171.341 Y82.967 E29.24651
G1 X171.339 Y152.009 E31.54286
G1 X171.329 Y152.744 E31.5673
G1 X171.277 Y153.645 E31.59732
G1 X171.145 Y154.539 E31.62738
G1 X170.935 Y155.417 E31.6574
G1 X170.648 Y156.273 E31.68743
G1 X170.189 Y157.293 E31.72463
G1 X170.026 Y157.608 E31.73643
G1 X169.576 Y158.391 E31.76647
G1 X169.058 Y159.131 E31.79651
G1 X168.477 Y159.822 E31.82654
G1 X167.837 Y160.459 E31.85657
G1 X167.143 Y161.037 E31.88661
G1 X166.619 Y161.411 E31.90802
G1 X166.308 Y161.618 E31.92045
G1 X165.534 Y162.085 E31.95052
G1 X164.723 Y162.481 E31.98053
G1 X163.88 Y162.804 E32.01056
G1 X163.011 Y163.051 E32.04061
G1 X162.124 Y163.221 E32.07065
G1 X160.845 Y163.325 E32.11333
G1 X159.579 Y163.347 E32.15544
G1 X74.968 Y163.346 E34.96961
G1 X74.17 Y163.335 E34.99616
G1 X73.269 Y163.283 E35.02617
G1 X72.375 Y163.151 E35.05623
G1 X71.497 Y162.94 E35.08627
G1 X70.641 Y162.653 E35.11629
G1 X69.814 Y162.291 E35.14632
G1 X69.021 Y161.857 E35.17639
G1 X67.982 Y161.135 E35.21847
G1 X67.642 Y160.866 E35.23289
G1 X66.959 Y160.275 E35.26293
G1 X66.332 Y159.626 E35.29294
G1 X65.764 Y158.924 E35.32298
G1 X65.26 Y158.174 E35.35303
G1 X64.825 Y157.383 E35.38306
G1 X64.496 Y156.643 E35.40999
G1 X64.392 Y156.382 E35.41934
G1 X64.095 Y155.529 E35.44938
G1 X63.874 Y154.653 E35.47943
G1 X63.733 Y153.761 E35.50946
G1 X63.669 Y152.798 E35.54156
G1 X63.648 Y151.595 E35.58158
G1 X63.649 Y82.949 E37.86476
G1 X63.66 Y82.257 E37.88777
G1 X63.715 Y81.355 E37.91783
G1 X63.848 Y80.462 E37.94786
G1 X64.061 Y79.584 E37.97791
G1 X64.406 Y78.588 E38.01297
G1 X64.528 Y78.287 E38.02377
G1 X64.904 Y77.465 E38.05383
G1 X65.351 Y76.681 E38.08385
G1 X65.866 Y75.939 E38.11389
G1 X66.444 Y75.245 E38.14393
G1 X67.082 Y74.605 E38.17399
G1 F1500 E36.17399
;MESH:YAPP_esp8266_relays_lid_only.stl
G0 F6000 X73.262 Y82.094
G0 X74.502 Y152.547
;TYPE:WALL-INNER
G1 F1500 E38.17399
G1 F1200 X160.472 Y152.546 E41.03336
G1 X160.54 Y152.46 E41.03701
G1 X160.54 Y82.499 E43.36392
G1 X160.471 Y82.453 E43.36668
G1 X74.504 Y82.453 E46.22595
G1 X74.449 Y82.535 E46.22924
G1 X74.448 Y152.468 E48.55522
G1 X74.502 Y152.547 E48.5584
G0 F6000 X74.134 Y152.761
;TYPE:WALL-OUTER
G1 F1200 X74.314 Y152.91 E48.56617
G1 X74.43 Y152.947 E48.57022
G1 X160.589 Y152.947 E51.43588
G1 X160.811 Y152.805 E51.44465
G1 X160.94 Y152.558 E51.45392
G1 X160.94 Y82.529 E53.78309
G1 X160.877 Y82.278 E53.7917
G1 X160.824 Y82.205 E53.7947
G1 X160.586 Y82.053 E53.80409
G1 X74.434 Y82.053 E56.66952
G1 X74.315 Y82.091 E56.67367
G1 X74.138 Y82.236 E56.68128
G1 X74.049 Y82.457 E56.68921
G1 X74.048 Y152.545 E59.02034
G1 X74.134 Y152.761 E59.02808
G0 F6000 X74.809 Y152.186
;TYPE:SKIN
G1 F1200 X160.18 Y152.187 E61.86753
G1 X160.18 Y82.814 E64.17488
G1 X74.809 Y82.814 E67.01433
G1 X74.809 Y152.186 E69.32165
G0 F6000 X75.617 Y151.984
G1 F1200 X75.009 Y151.376 E69.35025
G0 F6000 X75.009 Y150.811
G1 F1200 X76.182 Y151.984 E69.40543
G0 F6000 X76.748 Y151.984
G1 F1200 X75.009 Y150.245 E69.48722
G0 F6000 X75.009 Y149.679
G1 F1200 X77.314 Y151.984 E69.59564
G0 F6000 X77.88 Y151.984
G1 F1200 X75.009 Y149.113 E69.73069
G0 F6000 X75.009 Y148.548
G1 F1200 X78.445 Y151.984 E69.89231
G0 F6000 X79.011 Y151.984
G1 F1200 X75.009 Y147.982 E70.08055
G0 F6000 X75.009 Y147.416
G1 F1200 X79.577 Y151.984 E70.29541
G0 F6000 X80.142 Y151.984
G1 F1200 X75.009 Y146.851 E70.53685
G0 F6000 X75.009 Y146.285
G1 F1200 X80.708 Y151.984 E70.80492
G0 F6000 X81.274 Y151.984
G1 F1200 X75.009 Y145.719 E71.0996
G0 F6000 X75.009 Y145.154
G1 F1200 X81.839 Y151.984 E71.42087
G0 F6000 X82.405 Y151.984
G1 F1200 X75.009 Y144.588 E71.76875
G0 F6000 X75.009 Y144.022
G1 F1200 X82.971 Y151.984 E72.14326
G0 F6000 X83.536 Y151.984
G1 F1200 X75.009 Y143.457 E72.54434
G0 F6000 X75.009 Y142.891
G1 F1200 X84.102 Y151.984 E72.97205
G0 F6000 X84.668 Y151.984
G1 F1200 X75.009 Y142.325 E73.42638
G0 F6000 X75.009 Y141.76
G1 F1200 X85.233 Y151.984 E73.90729
G0 F6000 X85.799 Y151.984
G1 F1200 X75.009 Y141.194 E74.41481
G0 F6000 X75.009 Y140.628
G1 F1200 X86.365 Y151.984 E74.94897
G0 F6000 X86.931 Y151.984
G1 F1200 X75.009 Y140.063 E75.50972
G0 F6000 X75.009 Y139.497
G1 F1200 X87.496 Y151.984 E76.09707
G0 F6000 X88.062 Y151.984
G1 F1200 X75.009 Y138.931 E76.71104
G0 F6000 X75.009 Y138.365
G1 F1200 X88.628 Y151.984 E77.35164
G0 F6000 X89.193 Y151.984
G1 F1200 X75.009 Y137.8 E78.01881
G0 F6000 X75.009 Y137.234
G1 F1200 X89.759 Y151.984 E78.7126
G0 F6000 X90.325 Y151.984
G1 F1200 X75.009 Y136.668 E79.43302
G0 F6000 X75.009 Y136.103
G1 F1200 X90.89 Y151.984 E80.18001
G0 F6000 X91.456 Y151.984
G1 F1200 X75.009 Y135.537 E80.95363
G0 F6000 X75.009 Y134.971
G1 F1200 X92.022 Y151.984 E81.75387
G0 F6000 X92.587 Y151.984
G1 F1200 X75.009 Y134.406 E82.58068
G0 F6000 X75.009 Y133.84
G1 F1200 X93.153 Y151.984 E83.43412
G0 F6000 X93.719 Y151.984
G1 F1200 X75.009 Y133.274 E84.31418
G0 F6000 X75.009 Y132.709
G1 F1200 X94.284 Y151.984 E85.22082
G0 F6000 X94.85 Y151.984
G1 F1200 X75.009 Y132.143 E86.15408
G0 F6000 X75.009 Y131.577
G1 F1200 X95.416 Y151.984 E87.11396
G0 F6000 X95.981 Y151.984
G1 F1200 X75.009 Y131.012 E88.10042
G0 F6000 X75.009 Y130.446
G1 F1200 X96.547 Y151.984 E89.1135
G0 F6000 X97.113 Y151.984
G1 F1200 X75.009 Y129.88 E90.15321
G0 F6000 X75.009 Y129.314
G1 F1200 X97.679 Y151.984 E91.21953
G0 F6000 X98.244 Y151.984
G1 F1200 X75.009 Y128.749 E92.31244
G0 F6000 X75.009 Y128.183
G1 F1200 X98.81 Y151.984 E93.43196
G0 F6000 X99.376 Y151.984
G1 F1200 X75.009 Y127.617 E94.57811
G0 F6000 X75.009 Y127.052
G1 F1200 X99.941 Y151.984 E95.75084
G0 F6000 X100.507 Y151.984
G1 F1200 X75.009 Y126.486 E96.95019
G0 F6000 X75.009 Y125.92
G1 F1200 X101.073 Y151.984 E98.17616
G0 F6000 X101.638 Y151.984
G1 F1200 X75.009 Y125.355 E99.4287
G0 F6000 X75.009 Y124.789
G1 F1200 X102.204 Y151.984 E100.70787
G0 F6000 X102.77 Y151.984
G1 F1200 X75.009 Y124.223 E102.01366
G0 F6000 X75.009 Y123.658
G1 F1200 X103.336 Y151.985 E103.34608
G0 F6000 X103.902 Y151.985
G1 F1200 X75.009 Y123.092 E104.70512
G0 F6000 X75.009 Y122.526
G1 F1200 X104.467 Y151.985 E106.09076
G0 F6000 X105.033 Y151.985
G1 F1200 X75.009 Y121.961 E107.50299
G0 F6000 X75.009 Y121.395
G1 F1200 X105.599 Y151.985 E108.94185
G0 F6000 X106.165 Y151.985
G1 F1200 X75.009 Y120.829 E110.40733
G0 F6000 X75.009 Y120.264
G1 F1200 X106.73 Y151.985 E111.89939
G0 F6000 X107.296 Y151.985
G1 F1200 X75.009 Y119.698 E113.41807
G0 F6000 X75.009 Y119.132
G1 F1200 X107.862 Y151.985 E114.96338
G0 F6000 X108.427 Y151.985
G1 F1200 X75.009 Y118.566 E116.53528
G0 F6000 X75.009 Y118.001
G1 F1200 X108.993 Y151.985 E118.13379
G0 F6000 X109.559 Y151.985
G1 F1200 X75.009 Y117.435 E119.75891
G0 F6000 X75.009 Y116.869
G1 F1200 X110.124 Y151.985 E121.41064
G0 F6000 X110.69 Y151.985
G1 F1200 X75.009 Y116.304 E123.08896
G0 F6000 X75.009 Y115.738
G1 F1200 X111.256 Y151.985 E124.79391
G0 F6000 X111.821 Y151.985
G1 F1200 X75.009 Y115.172 E126.52546
G0 F6000 X75.009 Y114.607
G1 F1200 X112.387 Y151.985 E128.2836
G0 F6000 X112.953 Y151.985
G1 F1200 X75.009 Y114.041 E130.06837
G0 F6000 X75.009 Y113.475
G1 F1200 X113.518 Y151.985 E131.87974
G0 F6000 X114.084 Y151.985
G1 F1200 X75.009 Y112.91 E133.71771
G0 F6000 X75.009 Y112.344
G1 F1200 X114.65 Y151.985 E135.5823
G0 F6000 X115.215 Y151.985
G1 F1200 X75.009 Y111.778 E137.47349
G0 F6000 X75.009 Y111.213
G1 F1200 X115.781 Y151.985 E139.39128
G0 F6000 X116.347 Y151.985
G1 F1200 X75.009 Y110.647 E141.33569
G0 F6000 X75.009 Y110.081
G1 F1200 X116.913 Y151.985 E143.30673
G0 F6000 X117.478 Y151.985
G1 F1200 X75.009 Y109.515 E145.30437
G0 F6000 X75.009 Y108.95
G1 F1200 X118.044 Y151.985 E147.3286
G0 F6000 X118.61 Y151.985
G1 F1200 X75.009 Y108.384 E149.37946
G0 F6000 X75.009 Y107.818
G1 F1200 X119.175 Y151.985 E151.45691
G0 F6000 X119.741 Y151.985
G1 F1200 X75.009 Y107.253 E153.56097
G0 F6000 X75.009 Y106.687
G1 F1200 X120.307 Y151.985 E155.69165
G0 F6000 X120.872 Y151.985
G1 F1200 X75.009 Y106.121 E157.84893
G0 F6000 X75.009 Y105.556
G1 F1200 X121.438 Y151.985 E160.03281
G0 F6000 X122.004 Y151.985
G1 F1200 X75.009 Y104.99 E162.24331
G0 F6000 X75.009 Y104.424
G1 F1200 X122.569 Y151.985 E164.48041
G0 F6000 X123.135 Y151.985
G1 F1200 X75.009 Y103.859 E166.74411
G0 F6000 X75.009 Y103.293
G1 F1200 X123.701 Y151.985 E169.03443
G0 F6000 X124.266 Y151.985
G1 F1200 X75.009 Y102.727 E171.35135
G0 F6000 X75.009 Y102.162
G1 F1200 X124.832 Y151.985 E173.69487
G0 F6000 X125.398 Y151.985
G1 F1200 X75.009 Y101.596 E176.06501
G0 F6000 X75.009 Y101.03
G1 F1200 X125.964 Y151.985 E178.46178
G0 F6000 X126.529 Y151.985
G1 F1200 X75.009 Y100.465 E180.88512
G0 F6000 X75.009 Y99.899
G1 F1200 X127.095 Y151.985 E183.33509
G0 F6000 X127.661 Y151.985
G1 F1200 X75.009 Y99.333 E185.81168
G0 F6000 X75.009 Y98.767
G1 F1200 X128.226 Y151.985 E188.31487
G0 F6000 X128.792 Y151.985
